X: 4416
T: Bonintown Well
R: reel
M: 4/4
K: Cmajor
|:c2 ec dBAG|AcBA GE ~E2|ce/f/ ge dBAG|AcBA GCCz:|
ecgc dBgB|cAfA BG~G2|AFcF GEcE|FD G/F/E/D/ EC~C2|
egcg dgBg|ceAc BG~G2|AcFc GcEc|Aagf ec~c2||

